X:1
T:Bechler, 86.86.88.86
T:John C. Bechler (1784-1857)
T:Bechler, 86.86.88.86
T:Public Domain
C:John C. Bechler (1784-1857)
Z:Public Domain
%%score ( 1 2 ) ( 3 4 )
L:1/8
M:4/4
K:G
V:1 treble 
V:2 treble 
V:3 bass 
V:4 bass 
V:1
 D2 | [DG]2 [DG]2 [DA]2 [FA]2 | [GB]3 [Fc] [Gd]2 [Ec]2 | [DB]2 [DB]2 [DA]2 (DC) | [B,G]6 D2 | %5
 [DG]2 [DG]2 [DA]2 [DA]2 | [DB]3 [Cc] [B,d]2 [Ec]2 | [DB]2 [DB]2 [DA]2 (DC) | [B,G]6 D2 | %9
 [DA]2 [DA]2 [DB]2 [DB]2 | [Dc]3 [DB] [DA]2 D2 | [DA]2 [DA]2 [DB]2 [DB]2 | [Dc]3 [DB] [DA]2 D2 | %13
 [DG]2 [DG]2 [DA]2 [FA]2 | [GB]3 [Fc] [Gd]2 [Ec]2 | [DB]2 [DB]2 [DA]2 (DC) | [B,G]6 |] %17
V:2
 D2 | x8 | x8 | x6 A2 | x6 D2 | x8 | x8 | x6 A2 | x6 D2 | x8 | x6 D2 | x8 | x6 D2 | x8 | x8 | %15
 x6 A2 | x6 |] %17
V:3
 (D,C,) | [B,,G,]2 [G,B,]2 [F,A,]2 [D,D]2 | [G,,D]3 [A,,C] [B,,B,]2 [C,G,]2 | %3
 [D,G,]2 [D,G,]2 [D,F,]2 [D,F,]2 | [G,,D,]6 (D,C,) | [B,,G,]2 [G,B,]2 [F,A,]2 [D,F,]2 | %6
 [G,,G,]3 [A,,F,] [B,,G,]2 [C,G,]2 | [D,G,]2 [D,G,]2 [D,F,]2 [D,F,]2 | [G,,D,]6 [D,F,]2 | %9
 [F,A,]2 [D,F,]2 G,2 [D,G,]2 | [F,A,]3 G, [F,A,]2 [D,F,]2 | [F,A,]2 [D,F,]2 G,2 [D,G,]2 | %12
 [F,A,]3 G, [F,A,]2 (D,C,) | [B,,G,]2 [G,B,]2 [F,A,]2 [D,D]2 | [G,,D]3 [A,,C] [B,,B,]2 [C,G,]2 | %15
 [D,G,]2 [D,G,]2 [D,F,]2 [D,F,]2 | [G,,D,]6 |] %17
V:4
 F,2 | x8 | x8 | x8 | x6 F,2 | x8 | x8 | x8 | x8 | x4 G,2 x2 | x3 G, x4 | x4 G,2 x2 | %12
 x3 G, x F,2 x | x8 | x8 | x8 | x6 |] %17

